symbols/web/library_add_check/materialsymbolssharp/library_add_check_wght100_48px.svg

<svg xmlns="http://www.w3.org/2000/svg" height="48" width="48"><path d="M23.85 26.4 33.35 16.9 32.55 16.15 23.85 24.9 19.4 20.4 18.6 21.2ZM12.7 34V6.6H40.1V34ZM13.8 32.9H39V7.7H13.8ZM7.9 38.8V13H9V37.7H33.7V38.8ZM13.8 32.9V7.7V32.9Z"/></svg>

<svg xmlns="http://www.w3.org/2000/svg" height="48" width="48"><path d="m23.85 26.4 9.5-9.5-.8-.75-8.7 8.75-4.45-4.5-.8.8ZM12.7 34V6.6h27.4V34Zm1.1-1.1H39V7.7H13.8Zm-5.9 5.9V13H9v24.7h24.7v1.1Zm5.9-5.9V7.7v25.2Z"/></svg>
